svg/development/parentheses_fill.svg

<?xml version="1.0" encoding="UTF-8"?>
<svg width="24px" height="24px" viewBox="0 0 24 24" version="1.1" xmlns="http://www.w3.org/2000/svg" xmlns:xlink="http://www.w3.org/1999/xlink">
    <title>parentheses_fill</title>
    <g id="页面-1" stroke="none" stroke-width="1" fill="none" fill-rule="evenodd">
        <g id="Development" transform="translate(-384.000000, -48.000000)" fill-rule="nonzero">
            <g id="parentheses_fill" transform="translate(384.000000, 48.000000)">
                 <path d="M24,0 L24,24 L0,24 L0,0 L24,0 Z M12.5934901,23.257841 L12.5819402,23.2595131 L12.5108777,23.2950439 L12.4918791,23.2987469 L12.4918791,23.2987469 L12.4767152,23.2950439 L12.4056548,23.2595131 C12.3958229,23.2563662 12.3870493,23.2590235 12.3821421,23.2649074 L12.3780323,23.275831 L12.360941,23.7031097 L12.3658947,23.7234994 L12.3769048,23.7357139 L12.4804777,23.8096931 L12.4953491,23.8136134 L12.4953491,23.8136134 L12.5071152,23.8096931 L12.6106902,23.7357139 L12.6232938,23.7196733 L12.6232938,23.7196733 L12.6266527,23.7031097 L12.609561,23.275831 C12.6075724,23.2657013 12.6010112,23.2592993 12.5934901,23.257841 L12.5934901,23.257841 Z M12.8583906,23.1452862 L12.8445485,23.1473072 L12.6598443,23.2396597 L12.6498822,23.2499052 L12.6498822,23.2499052 L12.6471943,23.2611114 L12.6650943,23.6906389 L12.6699349,23.7034178 L12.6699349,23.7034178 L12.678386,23.7104931 L12.8793402,23.8032389 C12.8914285,23.8068999 12.9022333,23.8029875 12.9078286,23.7952264 L12.9118235,23.7811639 L12.8776777,23.1665331 C12.8752882,23.1545897 12.8674102,23.1470016 12.8583906,23.1452862 L12.8583906,23.1452862 Z M12.1430473,23.1473072 C12.1332178,23.1423925 12.1221763,23.1452606 12.1156365,23.1525954 L12.1099173,23.1665331 L12.0757714,23.7811639 C12.0751323,23.7926639 12.0828099,23.8018602 12.0926481,23.8045676 L12.108256,23.8032389 L12.3092106,23.7104931 L12.3186497,23.7024347 L12.3186497,23.7024347 L12.3225043,23.6906389 L12.340401,23.2611114 L12.337245,23.2485176 L12.337245,23.2485176 L12.3277531,23.2396597 L12.1430473,23.1473072 Z" id="MingCute" fill-rule="nonzero"></path>
                <path d="M5.67321,3.29316 C6.06362,2.56249 6.97243,2.28665 7.70309,2.67706 C8.43376,3.06747 8.7096,3.97627 8.31919,4.70694 C7.1586,6.87907 6.5,9.36043 6.5,12.0001 C6.5,14.6397 7.1586,17.121 8.31919,19.2932 C8.7096,20.0238 8.43376,20.9326 7.70309,21.323 C6.97243,21.7134 6.06362,21.4376 5.67321,20.7069 C4.28588,18.1105 3.5,15.1448 3.5,12.0001 C3.5,8.85529 4.28588,5.88963 5.67321,3.29316 Z M18.323,3.29316 C19.7103,5.88963 20.4962,8.85529 20.4962,12.0001 C20.4962,15.1448 19.7103,18.1105 18.323,20.7069 C17.9326,21.4376 17.0238,21.7134 16.2931,21.323 C15.5625,20.9326 15.2866,20.0238 15.677,19.2932 C16.8376,17.121 17.4962,14.6397 17.4962,12.0001 C17.4962,9.36043 16.8376,6.87907 15.677,4.70694 C15.2866,3.97627 15.5625,3.06747 16.2931,2.67706 C17.0238,2.28665 17.9326,2.56249 18.323,3.29316 Z" id="形状" fill="#09244B"></path>
            </g>
        </g>
    </g>
</svg>

<svg xmlns="http://www.w3.org/2000/svg" width="24" height="24"><g fill="none" fill-rule="nonzero"><path d="M24 0v24H0V0h24ZM12.593 23.258l-.011.002-.071.035-.02.004-.014-.004-.071-.035c-.01-.004-.019-.001-.024.005l-.004.01-.017.428.005.02.01.013.104.074.015.004.012-.004.104-.074.012-.016.004-.017-.017-.427c-.002-.01-.009-.017-.017-.018Zm.265-.113-.013.002-.185.093-.01.01-.003.011.018.43.005.012.008.007.201.093c.012.004.023 0 .029-.008l.004-.014-.034-.614c-.003-.012-.01-.02-.02-.022Zm-.715.002a.023.023 0 0 0-.027.006l-.006.014-.034.614c0 .012.007.02.017.024l.015-.002.201-.093.01-.008.004-.011.017-.43-.003-.012-.01-.01-.184-.092Z"/><path fill="#09244B" d="M5.673 3.293A1.5 1.5 0 1 1 8.32 4.707 15.425 15.425 0 0 0 6.5 12c0 2.64.659 5.121 1.82 7.293a1.5 1.5 0 1 1-2.647 1.414A18.425 18.425 0 0 1 3.5 12c0-3.145.786-6.11 2.173-8.707Zm12.65 0A18.426 18.426 0 0 1 20.496 12c0 3.145-.786 6.11-2.173 8.707a1.5 1.5 0 0 1-2.646-1.414A15.425 15.425 0 0 0 17.497 12c0-2.64-.66-5.12-1.82-7.293a1.5 1.5 0 0 1 2.646-1.414Z"/></g></svg>
